build/img/icon-link.svg

<svg width="20" height="20" viewBox="0 0 20 20" fill="none" xmlns="http://www.w3.org/2000/svg">
<g clip-path="url(#clip0)">
<path d="M12.2034 7.79552C11.9665 7.5572 11.7038 7.34595 11.4203 7.16563C10.6691 6.68467 9.79594 6.42909 8.90403 6.42909C7.66609 6.42678 6.47845 6.91865 5.60462 7.79552L1.36538 12.0381C0.493038 12.9121 0.0027352 14.0963 0.00195409 15.3312C0.000313761 17.9081 2.08791 19.9983 4.66479 20C5.90082 20.0043 7.08736 19.5148 7.96088 18.6402L11.4602 15.1409C11.5238 15.0778 11.5593 14.9918 11.5588 14.9023C11.5578 14.7182 11.4077 14.5699 11.2236 14.571H11.0903C10.3592 14.5735 9.6346 14.4331 8.95738 14.1577C8.83259 14.1064 8.68918 14.1353 8.59412 14.231L6.07789 16.7506C5.29655 17.5319 4.02975 17.5319 3.2484 16.7506C2.46706 15.9692 2.46706 14.7024 3.2484 13.9211L7.50432 9.66851C8.28504 8.88876 9.54977 8.88876 10.3305 9.66851C10.8566 10.1637 11.6774 10.1637 12.2035 9.66851C12.4298 9.44195 12.5671 9.14145 12.5901 8.82198C12.6144 8.44021 12.4736 8.06633 12.2034 7.79552Z" fill="#2C8ECC"/>
<path d="M18.6312 1.36666C16.8089 -0.455553 13.8546 -0.455553 12.0323 1.36666L8.5363 4.85935C8.4403 4.95582 8.41261 5.10091 8.46631 5.22597C8.51939 5.35137 8.64343 5.43187 8.77957 5.42925H8.90287C9.63313 5.42792 10.3566 5.56942 11.0325 5.84585C11.1573 5.89721 11.3007 5.86823 11.3957 5.77255L13.9053 3.26632C14.6866 2.48497 15.9534 2.48497 16.7348 3.26632C17.5161 4.04766 17.5161 5.31447 16.7348 6.09581L13.6087 9.21857L13.582 9.24856L12.4889 10.335C11.7081 11.1148 10.4434 11.1148 9.6627 10.335C9.13654 9.83986 8.31583 9.83986 7.78971 10.335C7.5619 10.5633 7.42454 10.8664 7.4031 11.1882C7.37873 11.57 7.51953 11.9439 7.78971 12.2147C8.17546 12.6021 8.62679 12.918 9.12279 13.1479C9.19278 13.1812 9.26277 13.2079 9.33276 13.2378C9.40274 13.2678 9.47605 13.2912 9.54604 13.3178C9.61602 13.3445 9.68933 13.3678 9.75932 13.3878L9.95596 13.4411C10.0893 13.4744 10.2226 13.5011 10.3592 13.5244C10.5238 13.5489 10.6895 13.5645 10.8558 13.5711H11.0891H11.1091L11.309 13.5478C11.3823 13.5445 11.459 13.5278 11.5457 13.5278H11.659L11.8889 13.4945L11.9956 13.4745L12.1889 13.4345H12.2256C13.0442 13.2289 13.7917 12.805 14.3885 12.208L18.631 7.96547C20.4534 6.14326 20.4534 3.18887 18.6312 1.36666Z" fill="#2C8ECC"/>
</g>
<defs>
<clipPath id="clip0">
<rect width="20" height="20" fill="white"/>
</clipPath>
</defs>
</svg>

<svg width="20" height="20" fill="none" xmlns="http://www.w3.org/2000/svg"><g clip-path="url(#clip0)" fill="#2C8ECC"><path d="M12.203 7.796a4.666 4.666 0 00-6.599 0l-4.239 4.242A4.666 4.666 0 004.665 20a4.636 4.636 0 003.296-1.36l3.5-3.5a.333.333 0 00-.237-.569h-.134a5.611 5.611 0 01-2.133-.413.333.333 0 00-.363.073l-2.516 2.52a2 2 0 01-2.83-2.83L7.504 9.67a2 2 0 012.827 0 1.366 1.366 0 001.873 0c.226-.227.363-.528.386-.847a1.333 1.333 0 00-.387-1.026z"/><path d="M18.631 1.367a4.666 4.666 0 00-6.599 0L8.536 4.859a.333.333 0 00.244.57h.123c.73-.001 1.454.14 2.13.417a.333.333 0 00.363-.073l2.51-2.507a2 2 0 112.829 2.83l-3.126 3.123-.027.03-1.093 1.086a2 2 0 01-2.826 0 1.367 1.367 0 00-1.873 0 1.333 1.333 0 000 1.88c.385.387.837.703 1.333.933.07.033.14.06.21.09.07.03.143.053.213.08.07.027.143.05.213.07l.197.053c.133.033.267.06.403.083.165.025.33.04.497.047h.253l.2-.023c.073-.004.15-.02.237-.02h.113l.23-.034.107-.02.193-.04h.037a4.665 4.665 0 002.162-1.226l4.243-4.243a4.666 4.666 0 000-6.598z"/></g><defs><clipPath id="clip0"><path fill="#fff" d="M0 0h20v20H0z"/></clipPath></defs></svg>
